icons/elementplus-dark.svg

<svg width="256" height="256" viewBox="0 0 256 256" fill="none" xmlns="http://www.w3.org/2000/svg">
<path d="M196 0H60C26.8629 0 0 26.8629 0 60V196C0 229.137 26.8629 256 60 256H196C229.137 256 256 229.137 256 196V60C256 26.8629 229.137 0 196 0Z" fill="#282828"/>
<path fill-rule="evenodd" clip-rule="evenodd" d="M224 180.827C224 189.872 219.214 191.946 219.214 191.946C219.214 191.946 137.629 238.957 132.324 241.953C130.966 242.641 129.465 243 127.942 243C126.42 243 124.918 242.641 123.56 241.953C123.56 241.953 38.2847 192.522 35.1712 190.333C34.2357 189.68 33.4632 188.821 32.9133 187.822C32.3634 186.823 32.0509 185.711 32 184.572C32 184.572 32 86.6321 32 82.1384C32 77.6447 37.7658 74.476 37.7658 74.476L122.811 25.2181C124.413 24.4171 126.18 24 127.971 24C129.763 24 131.529 24.4171 133.132 25.2181C133.132 25.2181 208.432 68.9453 216.505 73.6695C218.79 74.6556 220.712 76.3279 222.003 78.4545C223.295 80.581 223.892 83.0565 223.712 85.5375C223.712 85.5375 223.712 172.358 223.712 180.827H224ZM189.982 82.8873C172.685 72.8629 131.402 49.0693 131.402 49.0693C130.139 48.4403 128.748 48.1129 127.337 48.1129C125.926 48.1129 124.535 48.4403 123.272 49.0693L56.3315 87.381C56.3315 87.381 51.8919 90.0312 51.9495 93.6031C52.0072 97.175 51.9495 173.798 51.9495 173.798C52.013 174.658 52.2686 175.493 52.6977 176.24C53.1268 176.988 53.7184 177.63 54.4288 178.119C56.9081 179.848 123.618 218.447 123.618 218.447C124.679 218.993 125.855 219.278 127.049 219.278C128.242 219.278 129.418 218.993 130.479 218.447C134.631 216.143 198.631 179.329 198.631 179.329C198.631 179.329 202.378 177.716 202.378 170.63C202.378 168.556 202.378 160.605 202.378 150.639L127.308 196.152V178.868C127.437 176.599 128.013 174.378 129.002 172.332C129.992 170.285 131.375 168.454 133.074 166.943L199.726 126.615C201.658 124.223 202.769 121.274 202.897 118.203C202.897 110.887 202.897 104.549 202.897 100.516L127.308 146.145V127.709C127.233 125.735 127.628 123.771 128.46 121.978C129.292 120.185 130.537 118.615 132.094 117.397L189.982 82.8873Z" fill="#409EFF"/>
</svg>

<svg xmlns="http://www.w3.org/2000/svg" width="256" height="256" fill="none"><path fill="#282828" d="M196 0H60C26.863 0 0 26.863 0 60v136c0 33.137 26.863 60 60 60h136c33.137 0 60-26.863 60-60V60c0-33.137-26.863-60-60-60"/><path fill="#409EFF" fill-rule="evenodd" d="M224 180.827c0 9.045-4.786 11.119-4.786 11.119s-81.585 47.011-86.89 50.007a9.7 9.7 0 0 1-8.764 0s-85.275-49.431-88.389-51.62A7.43 7.43 0 0 1 32 184.572V82.138c0-4.493 5.766-7.662 5.766-7.662l85.045-49.258a11.54 11.54 0 0 1 10.321 0s75.3 43.727 83.373 48.451a11.99 11.99 0 0 1 7.207 11.868v95.29zm-34.018-97.94c-17.297-10.024-58.58-33.818-58.58-33.818a9.12 9.12 0 0 0-8.13 0l-66.94 38.312s-4.44 2.65-4.382 6.222c.057 3.572 0 80.195 0 80.195a5.75 5.75 0 0 0 2.479 4.321c2.48 1.729 69.189 40.328 69.189 40.328a7.5 7.5 0 0 0 6.861 0c4.152-2.304 68.152-39.118 68.152-39.118s3.747-1.613 3.747-8.699v-19.991l-75.07 45.513v-17.284a17.27 17.27 0 0 1 5.766-11.925l66.652-40.328a14.34 14.34 0 0 0 3.171-8.412v-17.687l-75.589 45.629v-18.436a12.49 12.49 0 0 1 4.786-10.312z" clip-rule="evenodd"/></svg>
